X:1
T:In Höchsten Nöten, LM
T:In Höchsten Nöten, LM
T:Strasbourg, 1545
T:Public Domain Courtesy of the Cyber Hymnal™
C:Strasbourg, 1545
Z:Public Domain
Z:Courtesy of the Cyber Hymnal™
%%score ( 1 2 ) 3
L:1/8
M:none
K:G
V:1 treble 
V:2 treble 
V:3 bass 
V:1
 [DG]4 [EG]2 [FA]2 | [GB]4 [FA]2 | ([Ac]4 [GB]2) A4 | G6 z2 [GB]4 | [Gc]2 [GB]2 [FA]2 [EG]2 | %5
 [^DF]4 [EG]4 | [FA]6 z2 | [Gd]4 [Gc]2 [GB]2 | [EA]4 [DF]4 | [DG]4 [^CE]4 | D6 z2 [GB]4 | %11
 [Gc]2 [GB]2 [FA]2 [EG]2 | B4 z2 x4 | G8 |] %14
V:2
 x8 | x6 | x6 (G2 F2) | G6 x6 | x8 | x8 | x8 | x8 | x8 | x8 | D6 x6 | x8 | (F2 G2) (A4 F2) | G8 |] %14
V:3
 [G,B,]4 [E,B,]2 [D,D]2 | [G,D]4 [D,D]2 | ([A,,E]4 [B,,D]2) ([C,E]2 [D,D]2) | [G,,B,]6 z2 [G,D]4 | %4
 [C,E]2 [G,,D]2 [D,D]2 [E,B,]2 | [B,,B,]4 [E,B,]4 | [D,D]6 z2 | [B,,D]4 [C,E]2 [G,,D]2 | %8
 [A,,C]4 [B,,B,]4 | [G,,B,]4 [A,,A,]4 | [D,F,]6 z2 [G,,D]4 | [C,E]2 [G,,D]2 [D,D]2 [E,B,]2 | %12
 [B,,D]4 [D,D]4 x2 | [G,,B,]8 |] %14

